img/label_4.svg

<svg width="106" height="31" viewBox="0 0 106 31" fill="none" xmlns="http://www.w3.org/2000/svg">
<path fill-rule="evenodd" clip-rule="evenodd" d="M36.6408 17.4346C35.7501 16.9424 35.2814 16.544 35.2814 15.9815C35.2814 15.2549 35.9142 14.8096 36.922 14.8096C38.0939 14.8096 39.1251 15.3018 39.1251 15.3018L39.9454 12.794C39.9454 12.794 39.1954 12.208 36.9689 12.208C33.8751 12.208 31.7189 13.9893 31.7189 16.4737C31.7189 17.8799 32.7267 18.958 34.0626 19.7315C35.1408 20.3408 35.5158 20.7862 35.5158 21.419C35.5158 22.0987 34.9767 22.6377 33.9689 22.6377C32.4689 22.6377 31.0626 21.8643 31.0626 21.8643L30.1954 24.3721C30.1954 24.3721 31.5079 25.2393 33.6876 25.2393C36.8751 25.2393 39.1486 23.669 39.1486 20.8565C39.1954 19.3096 38.0236 18.2315 36.6408 17.4346ZM49.3439 12.1612C47.7736 12.1612 46.5548 12.9112 45.5939 14.0362L45.547 14.0127L46.9064 6.8877H43.3673L39.922 25.0049H43.4611L44.6329 18.8174C45.1017 16.4737 46.297 15.044 47.422 15.044C48.2189 15.044 48.5236 15.583 48.5236 16.3565C48.5236 16.8487 48.4767 17.4346 48.3595 17.9268L47.0236 25.0283H50.5626L51.9454 17.7158C52.1095 16.9424 52.2033 16.0283 52.2033 15.3955C52.2267 13.3565 51.172 12.1612 49.3439 12.1612ZM60.2423 12.1612C55.9767 12.1612 53.1408 16.0049 53.1408 20.294C53.1408 23.0362 54.8283 25.2627 58.0158 25.2627C62.2111 25.2627 65.0236 21.5127 65.0236 17.1299C65.047 14.5752 63.5704 12.1612 60.2423 12.1612ZM58.5079 22.5205C57.2892 22.5205 56.797 21.4893 56.797 20.2002C56.797 18.1612 57.8517 14.8565 59.7736 14.8565C61.0392 14.8565 61.4376 15.9346 61.4376 16.9893C61.4376 19.1924 60.3829 22.5205 58.5079 22.5205ZM74.1173 12.1612C71.7267 12.1612 70.3673 14.2705 70.3673 14.2705H70.3204L70.5314 12.3721H67.3908C67.2267 13.6612 66.9454 15.6065 66.6642 17.083L64.2033 30.0674H67.7423L68.7267 24.8174H68.797C68.797 24.8174 69.5236 25.2862 70.8829 25.2862C75.0548 25.2862 77.7736 21.0205 77.7736 16.708C77.7736 14.294 76.7189 12.1612 74.1173 12.1612ZM70.7423 22.5908C69.8283 22.5908 69.2892 22.0752 69.2892 22.0752L69.8751 18.7705C70.297 16.5674 71.4455 15.0908 72.6642 15.0908C73.7423 15.0908 74.0705 16.0986 74.0705 17.0362C74.0705 19.3096 72.7111 22.5908 70.7423 22.5908ZM82.8361 7.05176C81.7111 7.05176 80.797 7.94238 80.797 9.11426C80.797 10.1689 81.4533 10.8955 82.4611 10.8955H82.508C83.6095 10.8955 84.5705 10.1455 84.5939 8.83301C84.6173 7.80176 83.9142 7.05176 82.8361 7.05176Z" fill="#6D7D93"/>
<path fill-rule="evenodd" clip-rule="evenodd" d="M77.8673 25.0049H81.4298L83.8439 12.4424H80.2579L77.8673 25.0049Z" fill="#6D7D93"/>
<path fill-rule="evenodd" clip-rule="evenodd" d="M92.8439 12.3955H90.3829L90.5001 11.8096C90.7111 10.5908 91.4142 9.51269 92.6095 9.51269C93.2423 9.51269 93.7345 9.70019 93.7345 9.70019L94.4376 6.93457C94.4376 6.93457 93.8283 6.62988 92.5158 6.62988C91.2501 6.62988 90.0079 6.98144 89.047 7.80176C87.8283 8.833 87.2658 10.3096 86.9845 11.8096L86.8908 12.3955H85.2501L84.7345 15.0674H86.3751L84.5001 24.9815H88.0392L89.9142 15.0674H92.3517L92.8439 12.3955ZM101.375 12.4424C101.375 12.4424 99.1486 18.0205 98.1642 21.0674H98.1173C98.047 20.083 97.2501 12.4424 97.2501 12.4424H93.5236L95.6564 23.9736C95.7033 24.2315 95.6798 24.3955 95.5861 24.5596C95.1642 25.3565 94.4845 26.1299 93.6642 26.6924C93.0079 27.1846 92.2579 27.4893 91.672 27.7002L92.6564 30.7002C93.3829 30.5362 94.8595 29.9502 96.1251 28.7783C97.7423 27.2549 99.2423 24.9346 100.766 21.7471L105.102 12.4424H101.375ZM17.3517 29.9502L26.1173 28.0518C26.1173 28.0518 22.9533 6.65332 22.9298 6.51269C22.9064 6.37207 22.7892 6.27832 22.672 6.27832C22.5548 6.27832 20.3283 6.11426 20.3283 6.11426C20.3283 6.11426 18.7814 4.56738 18.5939 4.40332C18.547 4.35644 18.5001 4.333 18.4533 4.30957L17.3517 29.9502ZM18.0783 4.26269C18.0548 4.26269 18.0079 4.28613 17.9845 4.28613C17.9611 4.28613 17.6329 4.37988 17.1173 4.54394C16.6017 3.04394 15.6876 1.66113 14.0704 1.66113H13.9298C13.4611 1.07519 12.8986 0.817383 12.4064 0.817383C8.63293 0.817383 6.82824 5.52832 6.26574 7.91894C4.81262 8.36426 3.75793 8.69238 3.64074 8.73926C2.82043 8.99707 2.79699 9.0205 2.70324 9.79394C2.60949 10.3564 0.476685 26.8799 0.476685 26.8799L16.9533 29.9736L18.0783 4.26269ZM13.7892 5.41113V5.57519C12.8751 5.85644 11.8673 6.16113 10.8829 6.46582C11.4454 4.30957 12.5001 3.25488 13.4142 2.85644C13.6486 3.46582 13.7892 4.28613 13.7892 5.41113ZM12.2892 1.82519C12.4533 1.82519 12.6173 1.87207 12.7814 1.98926C11.5861 2.55176 10.2736 3.98144 9.73449 6.84082C8.93762 7.09863 8.16418 7.333 7.43762 7.54394C8.07043 5.36426 9.59387 1.82519 12.2892 1.82519ZM12.9454 14.5518C12.9454 14.5518 11.9611 14.0362 10.7892 14.0362C9.03137 14.0362 8.96106 15.1377 8.96106 15.419C8.96106 16.919 12.8986 17.5049 12.8986 21.044C12.8986 23.833 11.1408 25.6143 8.75012 25.6143C5.89074 25.6143 4.43762 23.833 4.43762 23.833L5.21106 21.3018C5.21106 21.3018 6.71106 22.5908 7.97668 22.5908C8.79699 22.5908 9.14856 21.9346 9.14856 21.4658C9.14856 19.4971 5.91418 19.4033 5.91418 16.169C5.91418 13.4502 7.8595 10.8018 11.8204 10.8018C13.3439 10.8018 14.0939 11.2471 14.0939 11.2471L12.9454 14.5518ZM14.4454 2.69238C15.2892 2.78613 15.8283 3.74707 16.1798 4.82519C15.7579 4.96582 15.2892 5.10644 14.7736 5.2705V4.96582C14.7736 4.05176 14.6564 3.30176 14.4454 2.69238Z" fill="#6D7D93"/>
</svg>

<svg width="106" height="31" fill="none" xmlns="http://www.w3.org/2000/svg"><path fill-rule="evenodd" clip-rule="evenodd" d="M36.64 17.435c-.89-.493-1.359-.891-1.359-1.453 0-.727.633-1.172 1.641-1.172 1.172 0 2.203.492 2.203.492l.82-2.508s-.75-.586-2.976-.586c-3.094 0-5.25 1.781-5.25 4.266 0 1.406 1.008 2.484 2.344 3.258 1.078.609 1.453 1.054 1.453 1.687 0 .68-.54 1.219-1.547 1.219-1.5 0-2.906-.774-2.906-.774l-.868 2.508s1.313.867 3.493.867c3.187 0 5.46-1.57 5.46-4.383.047-1.546-1.124-2.625-2.507-3.421Zm12.704-5.274c-1.57 0-2.79.75-3.75 1.875l-.047-.023 1.36-7.125h-3.54l-3.445 18.117h3.54l1.17-6.188c.47-2.343 1.665-3.773 2.79-3.773.797 0 1.102.539 1.102 1.313a7.15 7.15 0 0 1-.165 1.57l-1.335 7.101h3.539l1.382-7.312c.164-.774.258-1.688.258-2.32.024-2.04-1.031-3.235-2.86-3.235Zm10.898 0c-4.265 0-7.101 3.844-7.101 8.133 0 2.742 1.687 4.969 4.875 4.969 4.195 0 7.008-3.75 7.008-8.133.023-2.555-1.454-4.969-4.782-4.969Zm-1.734 10.36c-1.219 0-1.711-1.032-1.711-2.32 0-2.04 1.055-5.345 2.977-5.345 1.265 0 1.664 1.079 1.664 2.133 0 2.203-1.055 5.531-2.93 5.531Zm15.61-10.36c-2.391 0-3.75 2.11-3.75 2.11h-.048l.211-1.899h-3.14c-.164 1.29-.446 3.235-.727 4.711l-2.46 12.984h3.538l.985-5.25h.07s.727.47 2.086.47c4.172 0 6.89-4.267 6.89-8.579 0-2.414-1.054-4.547-3.656-4.547Zm-3.376 10.43c-.914 0-1.453-.516-1.453-.516l.586-3.305c.422-2.203 1.57-3.68 2.79-3.68 1.077 0 1.405 1.009 1.405 1.946 0 2.274-1.359 5.555-3.328 5.555ZM82.836 7.05c-1.125 0-2.039.891-2.039 2.063 0 1.055.656 1.781 1.664 1.781h.047c1.102 0 2.063-.75 2.086-2.062.023-1.031-.68-1.781-1.758-1.781ZM77.867 25.005h3.563l2.414-12.563h-3.586l-2.39 12.563ZM92.844 12.396h-2.461l.117-.586c.211-1.22.914-2.297 2.11-2.297.632 0 1.124.187 1.124.187l.704-2.765s-.61-.305-1.922-.305c-1.266 0-2.508.351-3.469 1.172-1.219 1.031-1.781 2.508-2.063 4.008l-.093.585h-1.64l-.517 2.672h1.641L84.5 24.982h3.54l1.874-9.915h2.438l.492-2.671Zm8.531.046s-2.226 5.578-3.21 8.625h-.048c-.07-.984-.867-8.625-.867-8.625h-3.726l2.132 11.532c.047.258.024.421-.07.586a6.148 6.148 0 0 1-1.922 2.132c-.656.493-1.406.797-1.992 1.008l.984 3c.727-.164 2.203-.75 3.47-1.922 1.616-1.523 3.116-3.843 4.64-7.03l4.336-9.306h-3.727ZM17.352 29.95l8.765-1.898S22.953 6.653 22.93 6.512a.273.273 0 0 0-.258-.234c-.117 0-2.344-.164-2.344-.164s-1.547-1.547-1.734-1.71c-.047-.048-.094-.071-.14-.094l-1.102 25.64Zm.726-25.687c-.023 0-.07.023-.093.023-.024 0-.352.094-.868.258-.515-1.5-1.43-2.883-3.047-2.883h-.14c-.469-.586-1.031-.844-1.524-.844-3.773 0-5.578 4.711-6.14 7.102-1.453.445-2.508.773-2.625.82-.82.258-.844.281-.938 1.055C2.61 10.356.477 26.88.477 26.88l16.476 3.094 1.125-25.711ZM13.79 5.41v.164c-.914.281-1.922.586-2.906.89.562-2.155 1.617-3.21 2.531-3.609.235.61.375 1.43.375 2.555Zm-1.5-3.586c.164 0 .328.047.492.164-1.195.563-2.507 1.992-3.047 4.852a79.31 79.31 0 0 1-2.296.703c.632-2.18 2.156-5.719 4.851-5.719Zm.656 12.727s-.984-.516-2.156-.516c-1.758 0-1.828 1.102-1.828 1.383 0 1.5 3.938 2.086 3.938 5.625 0 2.789-1.758 4.57-4.149 4.57-2.86 0-4.312-1.781-4.312-1.781l.773-2.531s1.5 1.289 2.766 1.289c.82 0 1.172-.656 1.172-1.125 0-1.969-3.235-2.063-3.235-5.297 0-2.719 1.946-5.367 5.906-5.367 1.524 0 2.274.445 2.274.445l-1.149 3.305Zm1.5-11.86c.844.094 1.383 1.055 1.735 2.133-.422.14-.89.281-1.406.446v-.305c0-.914-.118-1.664-.329-2.274Z" fill="#6D7D93"/></svg>
